X:1
T:Thomas Tomkins (1572-1656)
T:ed. Ross Jallo
T:Psalm 109:20
T:DEAL WITH ME, O LORD
T:from Musica Deo sacra (London, 1668)
T:©
T:©
T:©
T:©
T:©
T:©
Z:©
%%score [ 1 2 3 ]
L:1/8
Q:1/4=120
M:2/2
K:F
V:1 treble nm="MEDIUS Alto"
V:2 treble-8 nm="TENOR Tenor"
V:3 bass nm="BASSUS Bass"
V:1
 z16 | z16 | z8 G6 D2 | F4 E4 D6 D2 | E2 F2 G6 G2 ^F4 | G6 D2 !courtesy!=F4 _E4- | E4 D6 D2 C4 | %7
w: ||Deal with|me, O Lord, ac-|cor- ding to thy name,|deal with me, O|_ Lord, O Lord,|
 z2 D4 A,2 C4 B,4 | A,8 z8 | z8 z4 D4 | E6 DE F2 E2 D2 C2 | =B,2 G,2 G4 A6 GA | B2 A2 G2 F2 E6 E2 | %13
w: deal with me, O|Lord:|for|sweet is thy mer- cy, is thy|mer- cy, for sweet is thy|mer- cy, is thy mer- cy,|
 z4 D4 E6 DE | F2 E2 A4 =B6 A!courtesy!=B | c2 =B2 A2 G2 F2 (ED) !courtesy!_B4- | %16
w: for sweet is thy|mer- cy, for sweet is thy|mer- cy, is thy mer- cy, _ sweet|
 B4 A2 G2 A2 G2 F2 !courtesy!_E2 | D2 (!courtesy!=EF) G2 (F2 _E2) D2 C4- | C2 C2 B,4 A,6 D2 | %19
w: _ is thy mer- cy, is thy|mer- cy, _ sweet is _ thy mer-|* cy, thy mer- cy,|
 C2 C2 B,4 A,4 D4 | z4 D4 E6 DE | F2 E2 D2 C2 B,2 G,2 G4 | A6 GA B2 A2 G2 F2 | E6 E2 z4 D4 | %24
w: sweet is thy mer- cy,|for sweet is thy|mer- cy, is thy mer- cy, for|sweet is thy mer- cy, is thy|mer- cy, for|
 E6 DE F2 E2 A4 | =B6 AB c2 B2 A2 G2 | F2 (ED) !courtesy!_B8 A2 G2 | %27
w: sweet is thy mer- cy, for|sweet is thy mer- cy, is thy|mer- cy, _ sweet is thy|
 A2 G2 F2 !courtesy!_E2 D2 (!courtesy!=EF) G2 (F2 | _E2) D2 C4- | C2 C2 B,2 C2 A,8 | %30
w: mer- cy, is thy mer- cy, _ sweet is|_ thy mer-|* cy, is thy mer-|
 !fermata!=B,16 |] %31
w: cy.|
V:2
 z16 | d6 A2 c4 B4 | A6 A2 B2 c2 d4- | d4 ^c4 d2 (!courtesy!=c2 B4) | A4 (G3 A) B2 c2 A4 | %5
w: |Deal with me, O|Lord, ac- cor- ding to|_ thy name, ac- *|cor- ding _ to thy name,|
 z4 d6 G2 c2 (BA) | B6 B2 A3 A G2 A2 | B4 A6 D2 G4- | G4 ^F4 G4 G4 | %9
w: deal with me, O _|Lord, ac- cor- ding to thy|name, deal with me,|_ O Lord: for|
 A2 (G2 !courtesy!=F2) (EF) (G2 A2 B4) | A2 G2 c2 B2 (A2 G2) ^F4 | (G3 A B4) c4 d4- | %12
w: sweet is _ thy _ mer- * *|cy, for sweet is thy _ mer-|cy, _ _ for sweet|
 d2 cd e2 d4 (^c=B) c4 | d2 !courtesy!=c2 (BA d4 ^c!courtesy!=B c4) | %14
w: _ is thy mer- cy, thy _ mer-|cy, thy mer- * * * * *|
 d6 !courtesy!=c2 e2 d2 g2 f2 | e2 (d2 ^c4) d6 d2 | !courtesy!=c12 A4 | B6 AB c2 B2 A2 G2 | %18
w: cy, for sweet, for sweet is|thy mer- * cy, for|sweet, for|sweet is thy mer- cy, is thy|
 (^F2 D2 G8 F4) | G4 G4 A2 G2 !courtesy!=F2 (EF | G2) A2 B4 A2 G2 c2 (B2 | A2) G2 ^F4 G2 A2 B4 | %22
w: mer- * * *|cy, for sweet is thy mer- *|* cy, for sweet, for sweet is|_ thy mer- cy, for sweet,|
 c4 d6 cd e2 d2- | d2 (^c!courtesy!=B) c4 d2 !courtesy!=c2 !courtesy!_BA d2- | %24
w: for sweet is thy mer- cy,|_ thy _ mer- cy, for sweet is thy|
 d2 (^c!courtesy!=B c4) d6 !courtesy!=c2 | e2 d2 g2 f2 (e2 d2) ^c4 | d6 d2 c8- | c4 A4 B6 AB | %28
w: _ mer- * * cy, for|sweet, for sweet is thy _ mer-|cy, for sweet,|_ for sweet is thy|
 (c2 B2 A2) G2 | ^F2 D2 (G8 F4) | !fermata!G16 |] %31
w: mer- * * cy,|is thy mer- *|cy.|
V:3
 G,6 D,2 F,4 E,4 | D,6 D,2 E,2 F,2 G,4- | G,4 ^F,4 G,3 (A, B,4) | A,6 G,2 ^F,4 G,4 | %4
w: Deal with me, O|Lord, ac- cor- ding to|_ thy name, ac- *|cor- ding to thy|
 C,3 (D, _E,4) D,6 C,2 | =B,,8 z2 B,,2 C,4 | G,6 D,2 F,4 _E,4 | D,16 | z4 D,4 =E,6 D,E, | %9
w: name, ac- * cor- ding|to thy name,|deal with me, O|Lord:|for sweet is thy|
 F,2 E,2 D,2 C,2 (B,,2 A,,2) G,,4 | C,4 A,,4 D,8 | G,,4 G,,2 G,4 ^F,(E, F,4) | %12
w: mer- cy, is thy mer- * cy,|is thy mer-|cy, for sweet is thy _|
 G,3 G, G,4 A,6 G,A, | B,2 A,2 G,2 F,2 (G,2 E,2 A,4) | D,2 (E,2 ^F,4) G,4 E,3 E, | A,8 D,4 z2 D,2 | %16
w: mer- cy, for sweet is thy|mer- cy, is thy mer- * *|cy, for _ sweet is thy|mer- cy, for|
 _E,6 D,!courtesy!_E, (F,2 !courtesy!_E,2 D,2 C,2 | B,,2 A,,2) G,,4 C,2 D,2 _E,4 | D,6 D,2 z4 D,4 | %19
w: sweet is thy mer- * * *|* * cy, sweet is thy|mer- cy, for|
 =E,6 D,E, F,2 E,2 D,2 C,2 | (B,,2 A,,2) G,,4 C,3 B,, A,,4 | D,8 G,,4 G,,2 G,2- | %22
w: sweet is thy mer- cy, is thy|mer- * cy, sweet is thy|mer- cy, for sweet|
 G,2 ^F,(E, F,4) G,2 G,,2 G,4 | A,6 G,A, B,2 A,2 G,2 F,2 | (G,2 E,2 A,4) D,2 (E,2 ^F,4) | %25
w: _ is thy _ mer- cy, for|sweet is thy mer- cy, is thy|mer- * * cy, for _|
 G,4 E,3 E, A,8 | D,4 z2 D,2 _E,6 D,!courtesy!_E, | F,2 !courtesy!_E,2 D,2 C,2 (B,,2 A,,2) G,,4 | %28
w: sweet is thy mer-|cy, for sweet is thy|mer- cy, is thy mer- * cy,|
 C,2 D,2 _E,4 | D,16 | !fermata!G,,16 |] %31
w: sweet is thy|mer-|cy.|

